icons/evolvere-flat-vivid-sunken-dark-fallback/apps/64/steam.svg

<?xml version="1.0" encoding="UTF-8" standalone="no"?>
<!-- Created with Inkscape (http://www.inkscape.org/) -->

<svg
   xmlns:dc="http://purl.org/dc/elements/1.1/"
   xmlns:cc="http://creativecommons.org/ns#"
   xmlns:rdf="http://www.w3.org/1999/02/22-rdf-syntax-ns#"
   xmlns:svg="http://www.w3.org/2000/svg"
   xmlns="http://www.w3.org/2000/svg"
   xmlns:xlink="http://www.w3.org/1999/xlink"
   xmlns:sodipodi="http://sodipodi.sourceforge.net/DTD/sodipodi-0.dtd"
   xmlns:inkscape="http://www.inkscape.org/namespaces/inkscape"
   width="64"
   height="64"
   id="svg13094"
   version="1.1"
   inkscape:version="0.48.3.1 r9886"
   sodipodi:docname="steam.svg">
  <sodipodi:namedview
     id="base"
     pagecolor="#ffffff"
     bordercolor="#666666"
     borderopacity="1.0"
     inkscape:pageopacity="0"
     inkscape:pageshadow="2"
     inkscape:zoom="11.313709"
     inkscape:cx="26.162223"
     inkscape:cy="32.969397"
     inkscape:document-units="px"
     inkscape:current-layer="svg13094"
     showgrid="true"
     inkscape:snap-bbox="true"
     inkscape:bbox-paths="true"
     inkscape:bbox-nodes="true"
     inkscape:snap-bbox-edge-midpoints="true"
     inkscape:snap-bbox-midpoints="true"
     inkscape:object-paths="true"
     inkscape:snap-intersection-paths="true"
     inkscape:object-nodes="true"
     inkscape:snap-smooth-nodes="true"
     inkscape:snap-midpoints="true"
     inkscape:snap-object-midpoints="true"
     inkscape:snap-center="true"
     showguides="true"
     inkscape:guide-bbox="true"
     inkscape:window-width="1920"
     inkscape:window-height="1023"
     inkscape:window-x="-10"
     inkscape:window-y="35"
     inkscape:window-maximized="1"
     inkscape:snap-global="true"
     fit-margin-top="0"
     fit-margin-left="0"
     fit-margin-right="0"
     fit-margin-bottom="0"
     showborder="true"
     inkscape:showpageshadow="false"
     inkscape:snap-page="true">
    <inkscape:grid
       type="xygrid"
       id="grid3075"
       empspacing="5"
       visible="true"
       enabled="true"
       snapvisiblegridlinesonly="true"
       originx="1.6362304e-08px"
       originy="18px" />
  </sodipodi:namedview>
  <defs
     id="defs13096">
    <linearGradient
       id="linearGradient4059">
      <stop
         id="stop4061"
         offset="0"
         style="stop-color:#626c7c;stop-opacity:1;" />
      <stop
         id="stop4063"
         offset="1"
         style="stop-color:#3a424b;stop-opacity:1;" />
    </linearGradient>
    <radialGradient
       inkscape:collect="always"
       xlink:href="#linearGradient4059"
       id="radialGradient3943"
       cx="28.378605"
       cy="23.333334"
       fx="28.378605"
       fy="23.333334"
       r="32"
       gradientTransform="matrix(0,1.75,-1.640625,0,70.281251,-31.999997)"
       gradientUnits="userSpaceOnUse" />
    <radialGradient
       inkscape:collect="always"
       xlink:href="#linearGradient3886"
       id="radialGradient3879"
       gradientUnits="userSpaceOnUse"
       gradientTransform="matrix(2.0317463e-8,2.2380952,-2.0982143,1.9047622e-8,69.041552,-52.619046)"
       cx="32"
       cy="17.653847"
       fx="32"
       fy="17.653847"
       r="21" />
    <linearGradient
       id="linearGradient3886">
      <stop
         id="stop3888"
         offset="0"
         style="stop-color:#ffffff;stop-opacity:0.76923078;" />
      <stop
         id="stop3890"
         offset="1"
         style="stop-color:#ffffff;stop-opacity:0.61990952;" />
    </linearGradient>
    <linearGradient
       id="linearGradient3955">
      <stop
         offset="0"
         style="stop-color:#4b617d;stop-opacity:1;"
         id="stop3957" />
      <stop
         offset="1"
         style="stop-color:#393f44;stop-opacity:1;"
         id="stop3959" />
    </linearGradient>
    <radialGradient
       r="32"
       fy="18"
       fx="32"
       cy="18"
       cx="32"
       gradientTransform="matrix(0,1.6151028,-1.7330518,0,63.194933,-32.683288)"
       gradientUnits="userSpaceOnUse"
       id="radialGradient3038"
       xlink:href="#linearGradient3955"
       inkscape:collect="always" />
    <radialGradient
       inkscape:collect="always"
       xlink:href="#linearGradient3886-2"
       id="radialGradient3879-7"
       gradientUnits="userSpaceOnUse"
       gradientTransform="matrix(2.0317463e-8,2.2380952,-2.0982143,1.9047622e-8,68.041552,-53.619046)"
       cx="32"
       cy="17.653847"
       fx="32"
       fy="17.653847"
       r="21" />
    <linearGradient
       id="linearGradient3886-2">
      <stop
         id="stop3888-7"
         offset="0"
         style="stop-color:#ffffff;stop-opacity:0.76923078;" />
      <stop
         id="stop3890-4"
         offset="1"
         style="stop-color:#ffffff;stop-opacity:0.61990952;" />
    </linearGradient>
    <radialGradient
       inkscape:collect="always"
       xlink:href="#linearGradient3886-2"
       id="radialGradient3090"
       gradientUnits="userSpaceOnUse"
       gradientTransform="matrix(2.0317463e-8,2.2380952,-2.0982143,1.9047622e-8,69.041552,-52.619046)"
       cx="32"
       cy="17.653847"
       fx="32"
       fy="17.653847"
       r="21" />
    <radialGradient
       inkscape:collect="always"
       xlink:href="#linearGradient3886-2"
       id="radialGradient3094"
       gradientUnits="userSpaceOnUse"
       gradientTransform="matrix(2.0317463e-8,2.2380952,-2.0982143,1.9047622e-8,69.041552,-52.619046)"
       cx="32"
       cy="17.653847"
       fx="32"
       fy="17.653847"
       r="21" />
  </defs>
  <metadata
     id="metadata13099">
    <rdf:RDF>
      <cc:Work
         rdf:about="">
        <dc:format>image/svg+xml</dc:format>
        <dc:type
           rdf:resource="http://purl.org/dc/dcmitype/StillImage" />
        <dc:title />
      </cc:Work>
    </rdf:RDF>
  </metadata>
  <path
     inkscape:connector-curvature="0"
     style="color:#000000;fill:url(#radialGradient3038);fill-opacity:1;fill-rule:nonzero;stroke:none;stroke-width:2.28571415;marker:none;visibility:visible;display:inline;overflow:visible;enable-background:accumulate"
     d="m 0,4 0,30 0,28 2,2 30,0 30,0 2,-2 L 64,34 64,4 32,4 0,4 z"
     id="path6383" />
  <path
     inkscape:connector-curvature="0"
     style="color:#000000;fill:#7090b3;fill-opacity:1;fill-rule:nonzero;stroke:none;stroke-width:2.28571415;marker:none;visibility:visible;display:inline;overflow:visible;enable-background:accumulate"
     d="M 2,0 0,1 0,4 32,4 64,4 64,1 62,0 32,0 2,0 z"
     id="path6502" />
  <path
     inkscape:connector-curvature="0"
     style="fill:#ffffff;fill-opacity:0.26881726;fill-rule:nonzero"
     d="M 0,3 0,6 2,4 32,4 62,4 64,3 32,3 0,3 z"
     id="path4298" />
  <path
     inkscape:connector-curvature="0"
     style="fill:#1f0700;fill-opacity:0.06978802;fill-rule:nonzero"
     d="M 2,0 0,1 32,1 64,1 62,0 32,0 2,0 z"
     id="path4444" />
  <path
     d="M 64,6 62,4 64,3 z"
     id="path3028"
     style="fill:#1f0700;fill-opacity:0.13759861"
     inkscape:connector-curvature="0" />
  <path
     inkscape:connector-curvature="0"
     style="fill:#000000;fill-opacity:0.11130587;fill-rule:nonzero"
     d="M 63,0.5 63,34 63,63 64,62 64,34 64,1 63,0.5 z m 0,62.5 -31,0 -31,0 1,1 30,0 30,0 1,-1 z"
     id="path4366" />
  <path
     inkscape:connector-curvature="0"
     d="m 46.691366,26.213745 c 0,2.758085 -2.238459,4.996519 -4.99656,4.996519 -2.758098,0 -4.996318,-2.238434 -4.996318,-4.996519 0,-2.758066 2.23822,-4.996497 4.996318,-4.996497 2.758101,0 4.99656,2.238431 4.99656,4.996497 z m -5.02148,-9.301182 c -5.12275,0 -9.283596,4.131398 -9.330037,9.243529 l -5.813126,8.330718 c -0.236878,-0.0246 -0.477707,-0.03843 -0.720756,-0.03843 -1.298706,0 -2.512441,0.357031 -3.555205,0.980078 L -4.0770199,24.839719 c -0.6879227,-3.12362 -3.479409,-5.476951 -6.8028781,-5.476951 -3.837177,0 -6.966414,3.138765 -6.966414,6.975902 0,3.837106 3.129237,6.966272 6.966414,6.966272 1.2987063,0 2.512599,-0.357007 3.5552035,-0.980078 L 19.003088,42.894402 c 0.681039,3.130893 3.472763,5.48654 6.802879,5.48654 3.607263,0 6.583093,-2.764999 6.927961,-6.28407 l 8.935958,-6.533886 C 46.820483,35.562986 51,31.391703 51,26.242577 51,21.090498 46.82096,16.912563 41.669886,16.912563 z m 0,3.074764 c 3.451005,0 6.255231,2.804091 6.255231,6.25525 0,3.451154 -2.804226,6.245633 -6.255231,6.245633 -3.451008,0 -6.255155,-2.794479 -6.255155,-6.245633 0,-3.451159 2.804147,-6.25525 6.255155,-6.25525 z m -52.549784,1.220303 c 1.9670878,0 3.6670753,1.098991 4.5255721,2.719253 l -2.5461419,-1.01852 0,0.0096 c -2.0515862,-0.736701 -4.3305522,0.265989 -5.1502832,2.306083 -0.819732,2.040113 0.12326,4.34935 2.113929,5.236727 l 0,0.0096 2.1619528,0.864772 c -0.3553938,0.07741 -0.7256638,0.124935 -1.1050288,0.124935 -2.838955,0 -5.121406,-2.28249 -5.121406,-5.121415 0,-2.838958 2.282451,-5.131042 5.121406,-5.131042 z m 36.685865,15.085611 c 2.839114,0 5.121405,2.282315 5.121405,5.121422 0,2.839114 -2.282291,5.121419 -5.121405,5.121419 -1.97476,0 -3.679814,-1.101086 -4.535226,-2.728866 0.842201,0.339856 1.685905,0.676248 2.527077,1.01853 2.087425,0.838792 4.464815,-0.169969 5.303927,-2.258039 0.839118,-2.087464 -0.179754,-4.455596 -2.267651,-5.294387 L 24.70094,36.418167 c 0.355394,-0.07741 0.72566,-0.124933 1.105027,-0.124933 z"
     id="path3088"
     style="color:#000000;fill:url(#radialGradient3090);fill-opacity:1;fill-rule:nonzero;stroke:none;stroke-width:1;marker:none;visibility:visible;display:inline;overflow:visible;enable-background:accumulate" />
  <path
     style="color:#000000;fill:#ffffff;fill-opacity:0.63261646999999999;fill-rule:nonzero;stroke:none;stroke-width:1;marker:none;visibility:visible;display:inline;overflow:visible;enable-background:accumulate"
     d="m 41.65625,16.90625 c -5.12275,0 -9.266059,4.137869 -9.3125,9.25 L 26.53125,34.5 c -0.236878,-0.0246 -0.475701,-0.0625 -0.71875,-0.0625 -1.298706,0 -2.519736,0.376953 -3.5625,1 L -3.25,25.15625 c 0.072314,0.219845 0.137127,0.458773 0.1875,0.6875 L 23.25,36.4375 c 1.042764,-0.623047 2.263794,-1 3.5625,-1 0.243049,0 0.481872,0.0379 0.71875,0.0625 l 5.8125,-8.34375 c 0.04644,-5.112131 4.18975,-9.25 9.3125,-9.25 2.253595,0 4.324567,0.79392 5.9375,2.125 -1.708116,-1.897628 -4.184534,-3.125 -6.9375,-3.125 z M -10.875,19.375 c -3.837177,0 -6.96875,3.131613 -6.96875,6.96875 0,2.182982 1.013963,4.127371 2.59375,5.40625 -0.995151,-1.204972 -1.59375,-2.727516 -1.59375,-4.40625 0,-3.837137 3.131573,-6.96875 6.96875,-6.96875 1.6617346,0 3.1757044,0.583715 4.375,1.5625 -1.2788695,-1.569891 -3.2017778,-2.5625 -5.375,-2.5625 z m 52.5625,1.84375 c -0.301004,0 -0.588613,0.01141 -0.875,0.0625 -0.195787,0.06098 -0.375453,0.108298 -0.5625,0.1875 -1.432739,0.606671 -2.597682,1.748099 -3.25,3.15625 -0.172527,0.505885 -0.3125,1.029696 -0.3125,1.59375 0,1.635865 0.81503,3.057123 2.03125,3.96875 -0.625344,-0.834379 -1.03125,-1.84653 -1.03125,-2.96875 0,-2.758066 2.241902,-5 5,-5 1.122612,0 2.165465,0.374226 3,1 -0.911676,-1.215784 -2.364511,-2 -4,-2 z m 4.875,1.125 c 0.850632,1.068459 1.375,2.436418 1.375,3.90625 0,0.69444 -0.134245,1.344904 -0.34375,1.96875 -0.01751,0.08552 -0.04067,0.166131 -0.0625,0.25 -0.02723,0.07146 -0.064,0.148577 -0.09375,0.21875 -0.474508,1.519648 -1.653705,2.706285 -3.15625,3.21875 -0.797881,0.368584 -1.68887,0.59375 -2.625,0.59375 -1.47962,0 -2.834479,-0.516093 -3.90625,-1.375 1.14625,1.446688 2.917712,2.375 4.90625,2.375 3.451005,0 6.28125,-2.798846 6.28125,-6.25 0,-1.981327 -0.934713,-3.759624 -2.375,-4.90625 z m -57.03125,0.34375 c -1.544897,0.06684 -2.978952,1.001179 -3.59375,2.53125 -0.72621,1.807359 -0.04353,3.82094 1.5,4.875 -0.78041,-1.093137 -1.038564,-2.534646 -0.5,-3.875 0.819731,-2.040094 3.104664,-3.049201 5.15625,-2.3125 l 2.5625,1.03125 C -5.6956742,24.273305 -6.2173297,23.699206 -6.8125,23.25 c 0.163339,0.216323 0.3408605,0.446131 0.46875,0.6875 l -2.5625,-1.03125 c -0.512897,-0.184175 -1.047534,-0.24103 -1.5625,-0.21875 z m -3.5,7.75 c 0.932883,1.236998 2.416847,2.03125 4.09375,2.03125 0.379365,0 0.738356,-0.04759 1.09375,-0.125 l -2.15625,-0.875 c -1.137933,-0.01341 -2.18939,-0.396353 -3.03125,-1.03125 z m 40.78125,6.84375 c -0.379367,0 -0.769606,0.04759 -1.125,0.125 l 2.15625,0.875 c 0.260987,0.104849 0.492711,0.225894 0.71875,0.375 -0.434273,-0.585023 -0.993078,-1.083469 -1.71875,-1.375 l -0.03125,0 z m 3.09375,1.03125 c 0.646444,0.8572 1.03125,1.931636 1.03125,3.09375 0,2.839114 -2.285886,5.125 -5.125,5.125 -1.194169,0 -2.287577,-0.415474 -3.15625,-1.09375 0.928774,1.280261 2.444719,2.09375 4.15625,2.09375 2.839114,0 5.125,-2.285886 5.125,-5.125 0,-1.676993 -0.794269,-3.160891 -2.03125,-4.09375 z M 19.1875,43.59375 c 0.420968,1.273508 1.201822,2.38756 2.21875,3.21875 C 20.721823,45.976133 20.237552,44.99833 20,43.90625 l -0.8125,-0.3125 z"
     id="path3008"
     inkscape:connector-curvature="0" />
  <path
     style="color:#000000;fill:#000000;fill-opacity:0.21908127;fill-rule:evenodd;stroke:none;stroke-width:1.3333329;marker:none;visibility:visible;display:inline;overflow:visible;enable-background:accumulate"
     d="m 41.65625,20 c -3.451008,0 -6.25,2.798841 -6.25,6.25 0,1.971472 0.915763,3.730626 2.34375,4.875 -0.843009,-1.063966 -1.34375,-2.412468 -1.34375,-3.875 0,-0.936171 0.224132,-1.827111 0.59375,-2.625 0.51607,-1.51322 1.715131,-2.68852 3.25,-3.15625 0.187047,-0.0792 0.366713,-0.126519 0.5625,-0.1875 C 41.399861,21.098306 42.009186,21 42.65625,21 c 1.469767,0 2.837784,0.493134 3.90625,1.34375 C 45.415852,20.903472 43.637488,20 41.65625,20 z M 48.875,20.3125 C 50.206233,21.925334 51,23.995965 51,26.25 c 0,5.149126 -4.193153,9.3125 -9.34375,9.3125 l -8.9375,6.53125 c -0.344868,3.519071 -3.298987,6.28125 -6.90625,6.28125 -1.649619,0 -3.180728,-0.567273 -4.375,-1.53125 1.278012,1.542081 3.222094,2.53125 5.375,2.53125 3.607263,0 6.561382,-2.762179 6.90625,-6.28125 l 8.9375,-6.53125 C 47.806847,36.5625 52,32.399126 52,27.25 52,24.489645 50.780999,22.020857 48.875,20.3125 z m -60.28125,0.90625 C -13.996234,21.480962 -16,23.682227 -16,26.34375 c 0,1.676886 0.794256,3.160859 2.03125,4.09375 C -14.615214,29.580291 -15,28.505789 -15,27.34375 c 0,-2.838958 2.286045,-5.125 5.125,-5.125 1.1607181,0 2.2057901,0.384646 3.0625,1.03125 -0.9331233,-1.235812 -2.3884474,-2.03125 -4.0625,-2.03125 -0.177435,0 -0.358584,-0.01748 -0.53125,0 z M -5.5,21.9375 c 0.6768823,0.830915 1.1994111,1.825171 1.4375,2.90625 l 0.8125,0.3125 C -3.6714671,23.874933 -4.4763409,22.772942 -5.5,21.9375 z m 51.1875,1.28125 c 0.625782,0.834524 1,1.877402 1,3 0,2.758085 -2.241899,5 -5,5 -1.122225,0 -2.134411,-0.405865 -2.96875,-1.03125 0.911567,1.216279 2.332877,2.03125 3.96875,2.03125 0.564061,0 1.087859,-0.139958 1.59375,-0.3125 1.408137,-0.650493 2.54956,-1.787707 3.15625,-3.21875 0.02975,-0.07017 0.06652,-0.147291 0.09375,-0.21875 0.02183,-0.08387 0.04499,-0.164483 0.0625,-0.25 0.06659,-0.325165 0.09375,-0.655239 0.09375,-1 0,-1.635468 -0.7842,-3.088335 -2,-4 z m -58.25,6.875 c 0.407428,0.570694 0.942201,1.07063 1.625,1.375 0.02074,2.44e-4 0.0417,0 0.0625,0 0.379365,0 0.738356,-0.04759 1.09375,-0.125 l -2.15625,-0.875 c -0.227113,-0.10124 -0.426222,-0.239257 -0.625,-0.375 z m -2.65625,1.71875 c 1.279602,1.519173 3.209745,2.5 5.34375,2.5 1.2987063,0 2.5198955,-0.376929 3.5625,-1 l 25.5,10.28125 C 19.111995,43.365332 19.051787,43.144328 19,42.90625 L -7.3125,32.3125 c -1.0426045,0.623071 -2.2637937,1 -3.5625,1 -1.631638,0 -3.154277,-0.554581 -4.34375,-1.5 z m 41.03125,4.46875 c -0.379367,0 -0.769606,0.04759 -1.125,0.125 l 2.125,0.875 0.03125,0 c 1.15005,0.0068 2.212976,0.390588 3.0625,1.03125 -0.932853,-1.236986 -2.416753,-2.03125 -4.09375,-2.03125 z m 2.875,2.5 c 0.734488,1.08204 0.930699,2.476585 0.40625,3.78125 -0.839112,2.08807 -3.193825,3.088792 -5.28125,2.25 -0.841172,-0.342282 -1.689049,-0.660144 -2.53125,-1 0.331407,0.630641 0.791009,1.154621 1.34375,1.59375 -0.132345,-0.185891 -0.236823,-0.390278 -0.34375,-0.59375 0.842201,0.339856 1.690078,0.657718 2.53125,1 2.087425,0.838792 4.442138,-0.16193 5.28125,-2.25 0.711204,-1.769253 0.07159,-3.710786 -1.40625,-4.78125 z"
     id="path3033"
     inkscape:connector-curvature="0" />
  <path
     style="fill:#ffffff;fill-opacity:0.35070675;fill-rule:nonzero"
     d="M 0,1 0,34 0,62 1,63 1,34 1,5 2,4 1,3.46875 1,1 0,1 z"
     id="path3864"
     inkscape:connector-curvature="0" />
</svg>

<?xml version="1.0" encoding="UTF-8" standalone="no"?>
<!-- Created with Inkscape (http://www.inkscape.org/) -->

<svg
   xmlns:dc="http://purl.org/dc/elements/1.1/"
   xmlns:cc="http://creativecommons.org/ns#"
   xmlns:rdf="http://www.w3.org/1999/02/22-rdf-syntax-ns#"
   xmlns:svg="http://www.w3.org/2000/svg"
   xmlns="http://www.w3.org/2000/svg"
   xmlns:sodipodi="http://sodipodi.sourceforge.net/DTD/sodipodi-0.dtd"
   xmlns:inkscape="http://www.inkscape.org/namespaces/inkscape"
   width="64"
   height="64"
   id="svg13094"
   version="1.1"
   inkscape:version="0.91+devel r"
   sodipodi:docname="steam.svg">
  <sodipodi:namedview
     id="base"
     pagecolor="#ffffff"
     bordercolor="#666666"
     borderopacity="1.0"
     inkscape:pageopacity="0"
     inkscape:pageshadow="2"
     inkscape:zoom="11.313709"
     inkscape:cx="31.156164"
     inkscape:cy="34.118445"
     inkscape:document-units="px"
     inkscape:current-layer="svg13094"
     showgrid="true"
     inkscape:snap-bbox="true"
     inkscape:bbox-paths="true"
     inkscape:bbox-nodes="true"
     inkscape:snap-bbox-edge-midpoints="true"
     inkscape:snap-bbox-midpoints="true"
     inkscape:object-paths="true"
     inkscape:snap-intersection-paths="true"
     inkscape:object-nodes="true"
     inkscape:snap-smooth-nodes="true"
     inkscape:snap-midpoints="true"
     inkscape:snap-object-midpoints="true"
     inkscape:snap-center="true"
     showguides="true"
     inkscape:guide-bbox="true"
     inkscape:window-width="1920"
     inkscape:window-height="1023"
     inkscape:window-x="-10"
     inkscape:window-y="35"
     inkscape:window-maximized="1"
     inkscape:snap-global="true"
     fit-margin-top="0"
     fit-margin-left="0"
     fit-margin-right="0"
     fit-margin-bottom="0"
     showborder="true"
     inkscape:showpageshadow="false"
     inkscape:snap-page="true">
    <inkscape:grid
       type="xygrid"
       id="grid3075"
       empspacing="5"
       visible="true"
       enabled="true"
       snapvisiblegridlinesonly="true"
       originx="1.6362304e-08px"
       originy="18px" />
  </sodipodi:namedview>
  <defs
     id="defs13096" />
  <metadata
     id="metadata13099">
    <rdf:RDF>
      <cc:Work
         rdf:about="">
        <dc:format>image/svg+xml</dc:format>
        <dc:type
           rdf:resource="http://purl.org/dc/dcmitype/StillImage" />
        <dc:title></dc:title>
      </cc:Work>
    </rdf:RDF>
  </metadata>
  <path
     inkscape:connector-curvature="0"
     style="color:#000000;display:inline;overflow:visible;visibility:visible;opacity:1;fill:#3b577a;fill-opacity:1;fill-rule:nonzero;stroke:none;stroke-width:1;stroke-linecap:butt;stroke-linejoin:miter;stroke-miterlimit:4;stroke-dasharray:none;stroke-dashoffset:0;stroke-opacity:1;marker:none;enable-background:accumulate"
     d="m 0,4 0,30 0,28 2,2 30,0 30,0 2,-2 L 64,34 64,4 32,4 0,4 Z"
     id="path4095" />
  <path
     inkscape:connector-curvature="0"
     style="color:#000000;display:inline;overflow:visible;visibility:visible;opacity:1;fill:#668cbb;fill-opacity:1;fill-rule:nonzero;stroke:none;stroke-width:2.28571415;stroke-linecap:butt;stroke-linejoin:miter;stroke-miterlimit:4;stroke-dasharray:none;stroke-dashoffset:0;stroke-opacity:1;marker:none;enable-background:accumulate"
     d="M 2,0 0,1 0,4 32,4 64,4 64,1 62,0 32,0 2,0 Z"
     id="path4090" />
  <path
     inkscape:connector-curvature="0"
     style="opacity:1;fill:#729bcd;fill-opacity:1;fill-rule:nonzero;stroke-width:1;stroke-linecap:butt;stroke-linejoin:miter;stroke-miterlimit:4;stroke-dasharray:none;stroke-dashoffset:0;stroke-opacity:1"
     d="M 0,3 0,6 2,4 Z"
     id="path4298"
     sodipodi:nodetypes="cccc" />
  <path
     d="M 64,6 62,4 64,3 Z"
     id="path3028"
     style="opacity:1;fill:#4f6f97;fill-opacity:1;stroke:none;stroke-width:0.62299293;stroke-linecap:butt;stroke-linejoin:miter;stroke-miterlimit:4;stroke-dasharray:none;stroke-dashoffset:0;stroke-opacity:1;marker:none"
     inkscape:connector-curvature="0" />
  <g
     id="g3043"
     inkscape:export-filename="folder.png"
     inkscape:export-xdpi="90"
     inkscape:export-ydpi="90"
     transform="translate(-0.62500009,0.082283)" />
  <g
     id="scalable"
     transform="matrix(1.0385892,0,0,1.0385892,1214.7222,1878.8121)"
     inkscape:label="#g3701"
     style="fill:#ffffff" />
  <path
     style="color:#000000;fill:#ffffff;fill-opacity:0.90608227;fill-rule:nonzero;stroke:none;stroke-width:1;marker:none;visibility:visible;display:inline;overflow:visible;enable-background:accumulate"
     d="M 41.669922 16.912109 C 36.547172 16.912109 32.386285 21.044119 32.339844 26.15625 L 26.527344 34.486328 C 26.290466 34.461728 26.04969 34.449219 25.806641 34.449219 C 24.507935 34.449219 23.292764 34.804687 22.25 35.427734 L 0 26.478516 L 0 34 L 0 35.265625 L 19.003906 42.894531 C 19.684945 46.025424 22.476525 48.380859 25.806641 48.380859 C 29.413904 48.380859 32.389507 45.616727 32.734375 42.097656 L 41.669922 35.5625 C 46.820519 35.5625 51 31.391313 51 26.242188 C 51 21.090108 46.820996 16.912109 41.669922 16.912109 z M 41.669922 19.988281 C 45.120927 19.988281 47.925781 22.791028 47.925781 26.242188 C 47.925781 29.693341 45.120927 32.488281 41.669922 32.488281 C 38.218914 32.488281 35.414062 29.693341 35.414062 26.242188 C 35.414062 22.791028 38.218914 19.988281 41.669922 19.988281 z M 41.695312 21.216797 C 38.937214 21.216797 36.699219 23.454825 36.699219 26.212891 C 36.699219 28.970976 38.937215 31.210938 41.695312 31.210938 C 44.453413 31.210937 46.691406 28.970976 46.691406 26.212891 C 46.691406 23.454825 44.453413 21.216797 41.695312 21.216797 z M 25.806641 36.292969 C 28.645755 36.292969 30.927734 38.574956 30.927734 41.414062 C 30.927734 44.253177 28.645755 46.535156 25.806641 46.535156 C 23.831881 46.535156 22.126896 45.434421 21.271484 43.806641 C 22.113685 44.146497 22.955703 44.48389 23.796875 44.826172 C 25.8843 45.664964 28.26245 44.656429 29.101562 42.568359 C 29.94068 40.480895 28.921881 38.112229 26.833984 37.273438 L 24.701172 36.417969 C 25.056566 36.340559 25.427274 36.292969 25.806641 36.292969 z "
     id="path3088" />
</svg>
